X:1
T:Title
%%score { ( 1 3 5 ) | ( 2 4 ) }
L:1/8
Q:1/4=100
M:4/4
K:F
V:1 treble nm="Grand Piano"
V:3 treble 
V:5 treble 
V:2 bass 
V:4 bass 
V:1
 A3 A c2 [CF]2 | [CFA]3 [B,EG] [B,EG]2 [A,F]2 | [B,DF]2 [Fd]2 [Ec]3 [EG] | A6 z2 | %4
w: Ira~D.~Sankey * * *||||
 A3 A [Ec]2 [A,F]2 | [^CEA]3 [A,EG] [B,DG]2 [A,DF]2 | z2 d2 [Ec]2 z2 | F6 z2 | %8
w: ||||
 [EG]3 [EG] [Ec]2 [EG]2 | [CB]2- [CFB][CGc] [CEB]2 [CFA]2 | [DFA]2 [Fd]2 [DFA]2 [DF=B]2 | %11
w: |||
 c2- [Gc-]2 [Fc]2 E2 | z2 z c f2 [Gc]2 | A4 z4 | z4 A4 | [A,F]6 z2 |] %16
w: |||||
V:2
 [F,CF]3 [F,CF] [F,A,F]2 A,,2 | C,3 C, C,2 D,2 | B,,2 [B,,A,]2 [C,G,]3 [C,C] | [F,CF]6 z2 | %4
 [F,CF]3 [F,CF] [C,B,]2 D,2 | A,,3 ^C, D,2 D,2 | B,,2 [B,,G,]2 .[C,G,]2 [C,B,C]2 | [F,A,C]6 z2 | %8
 [C,C]3 [C,C] [C,C]2 [C,C]2 | C,2 D,E, G,2 F,2 | D,2 [D,A,]2 D,2 G,,2 | z2 B,2 A,2 G,2 | %12
 [F,A,F]2 [G,B,]2 [A,CF]2 [E,C]2 | [F,CF]2 [D,D]2 A,,2 z B, | D,2 G,,2 C,2 z G | F,6 z2 |] %16
V:3
 x8 | x8 | x8 | x8 | x8 | x8 | [B,DG]2 DF z A, E2 | x8 | x8 | E2 z2 z4 | x8 | [CE]2 z2 z4 | c4 z4 | %13
 z2 z A [CEc]2 .[CEA]2 | [A,F]2 [DFB]2 [CE]2 [B,E]2 | x8 |] %16
V:4
 x8 | x8 | x8 | x8 | x8 | x8 | x8 | x8 | x8 | x8 | x8 | C,6 z2 | x8 | z4 z2 C,2 | z4 z2 C,2 | x8 |] %16
V:5
 x8 | x8 | x8 | x8 | x8 | x8 | x8 | x8 | x8 | x8 | x8 | x8 | z2 E2 z4 | z2 F2 z4 | x8 | x8 |] %16

